X:13038
T:Peter Murphy.s Jig
M:6/8
L:1/8
C:Peter Murphy
S:Donna Rafferty
R:Jig
K:G
AGE D2A | DEG AGE | AGE D2A | DEG G3|
AGE D2A | DEG AGE | DEG A2A |1 BGG G3:||2 BGG G2 A
||: DAD BDD | BDD AGE | DAD BDD | DEG G2 A |
DAD BDD | BDD AGE | DEG A2A |1 BGG G2 A :||2 BGG G3 ||
